build/flags/Spain.svg

<svg xmlns="http://www.w3.org/2000/svg" fill="none" viewBox="0 0 28 28" focusable="false"><defs><filter id="Spain_svg__a"><feColorMatrix values="0 0 0 0 1 0 0 0 0 1 0 0 0 0 1 0 0 0 1 0"/></filter></defs><mask id="Spain_svg__b" width="28" height="20" x="0" y="4" maskUnits="userSpaceOnUse"><g filter="url(#Spain_svg__a)"><rect width="28" height="20" y="4" fill="#FFF" rx="3"/><rect width="28" height="20" y="4" stroke="#969696" stroke-opacity="0" stroke-width="0" rx="3"/></g></mask><path fill="none" d="M0 0H28V28H0z"/><rect width="28" height="20" y="4" fill="#FFF" rx="3"/><rect width="28" height="20" y="4" rx="3"/><g mask="url(#Spain_svg__b)"><path fill="#DD172C" fill-rule="evenodd" d="M0 9.33333L28 9.33333L28 4L0 4L0 9.33333Z"/><path d="M28 9.33333L28 4L0 4L0 9.33333L28 9.33333Z"/><path fill="#DD172C" fill-rule="evenodd" d="M0 24L28 24L28 18.6666L0 18.6666L0 24Z"/><path d="M28 24L28 18.6666L0 18.6666L0 24L28 24Z"/><path fill="#FFD133" fill-rule="evenodd" d="M0 18.6667L28 18.6667L28 9.33337L0 9.33337L0 18.6667Z"/><path d="M28 18.6667L28 9.33337L0 9.33337L0 18.6667L28 18.6667Z"/><path fill="#FFEDB0" fill-rule="evenodd" d="M7.33334 13.3333L8.66668 13.3333L8.66668 14L7.33334 14L7.33334 13.3333Z"/><path d="M8.66668 13.3333L8.66668 14L7.33334 14L7.33334 13.3333L8.66668 13.3333Z"/><path fill="none" d="M5.72683 13.3887C5.69444 13 6.00116 12.6666 6.39119 12.6666L8.27546 12.6666C8.66548 12.6666 8.97221 13 8.93982 13.3887L8.76854 15.444C8.71095 16.1351 8.13326 16.6666 7.43981 16.6666L7.22683 16.6666C6.53338 16.6666 5.95569 16.1351 5.89811 15.444L5.72683 13.3887Z"/><path fill="#A41517" fill-rule="evenodd" d="M6.39119 12.6666C6.00116 12.6666 5.69444 13 5.72683 13.3887L5.89811 15.444C5.95569 16.1351 6.53338 16.6666 7.22683 16.6666L7.43981 16.6666C8.13326 16.6666 8.71095 16.1351 8.76854 15.444L8.93982 13.3887C8.97221 13 8.66548 12.6666 8.27546 12.6666L6.39119 12.6666ZM6.39119 13.3333L8.27546 13.3333L8.10418 15.3887C8.09698 15.475 8.07563 15.5545 8.04014 15.627C8.00465 15.6996 7.95501 15.7652 7.89122 15.8239C7.82743 15.8826 7.75792 15.9266 7.68268 15.9559C7.60745 15.9853 7.52649 16 7.43981 16L7.22683 16C7.14015 16 7.0592 15.9853 6.98396 15.9559C6.90873 15.9266 6.83922 15.8826 6.77543 15.8239C6.71164 15.7652 6.662 15.6996 6.62651 15.627C6.59101 15.5545 6.56967 15.475 6.56247 15.3887L6.39119 13.3333Z"/><path fill="#A41517" fill-rule="evenodd" d="M6 14L8.66667 14L8.66667 14.6667L8 14.6667L7.33333 16L6.66667 14.6667L6 14.6667L6 14Z"/><path d="M8.66667 14L8.66667 14.6667L8 14.6667L7.33333 16L6.66667 14.6667L6 14.6667L6 14L8.66667 14Z"/><rect width="1.333" height="4.667" x="4" y="12" fill="#A41517" rx=".667"/><rect width="1.333" height="4.667" x="4" y="12" rx=".667"/><rect width="1.333" height="4.667" x="9.333" y="12" fill="#A41517" rx=".667"/><rect width="1.333" height="4.667" x="9.333" y="12" rx=".667"/><path fill="#A41517" fill-rule="evenodd" d="M7.6 10.6666C8.1891 10.6666 8.66667 11.1442 8.66667 11.7333C8.66667 11.8806 8.54728 12 8.4 12L6.26667 12C6.11939 12 6 11.8806 6 11.7333C6 11.1442 6.47756 10.6666 7.06667 10.6666L7.6 10.6666Z"/><path d="M7.6 10.6666C8.1891 10.6666 8.66667 11.1442 8.66667 11.7333C8.66667 11.8806 8.54728 12 8.4 12L6.26667 12C6.11939 12 6 11.8806 6 11.7333C6 11.1442 6.47756 10.6666 7.06667 10.6666L7.6 10.6666Z"/></g></svg>

<svg xmlns="http://www.w3.org/2000/svg" fill="none" viewBox="0 0 28 28" focusable="false"><path fill="none" d="M0 0h28v28H0z"/><rect width="28" height="20" y="4" fill="#FFF" rx="3"/><rect width="28" height="20" y="4" rx="3"/><mask id="Spain_svg__a" width="28" height="20" x="0" y="4" mask-type="alpha" maskUnits="userSpaceOnUse"><rect width="28" height="20" y="4" fill="#FFF" rx="3"/><rect width="28" height="20" y="4" stroke="#979797" stroke-opacity="0" stroke-width="0" rx="3"/></mask><g mask="url(#Spain_svg__a)"><path fill="#DD172C" fill-rule="evenodd" d="M0 9.33h28V4H0z"/><path d="M28 9.33V4H0v5.33z"/></g><g mask="url(#Spain_svg__a)"><path fill="#DD172C" fill-rule="evenodd" d="M0 23.99h28v-5.33H0z"/><path d="M28 23.99v-5.33H0v5.33z"/></g><g mask="url(#Spain_svg__a)"><path fill="#FFD133" fill-rule="evenodd" d="M0 18.66h28V9.33H0z"/><path d="M28 18.66V9.33H0v9.33z"/></g><g mask="url(#Spain_svg__a)"><path fill="#FFEDB1" fill-rule="evenodd" d="M7.33 13.33h1.33V14H7.33z"/><path d="M8.66 13.33V14H7.33v-.67z"/></g><g mask="url(#Spain_svg__a)"><path fill="none" d="M5.72 13.38c-.03-.38.28-.72.67-.72h1.88c.39 0 .7.34.66.72l-.17 2.06c-.05.69-.63 1.22-1.33 1.22h-.21c-.69 0-1.27-.53-1.33-1.22z"/><path fill="#A41517" fill-rule="evenodd" d="M5.72 13.38c-.03-.38.28-.72.67-.72h1.88c.39 0 .7.34.66.72l-.17 2.06c-.05.69-.63 1.22-1.33 1.22h-.21c-.69 0-1.27-.53-1.33-1.22zm.67-.05h1.88l-.17 2.05q-.01.13-.06.24-.06.11-.15.2-.1.09-.21.13-.12.04-.25.04h-.21q-.13 0-.24-.04t-.21-.13-.15-.2-.06-.24z"/></g><g mask="url(#Spain_svg__a)"><path fill="#A41517" fill-rule="evenodd" d="M6 14h2.66v.66H8L7.33 16l-.67-1.34H6z"/><path d="M8.66 14v.66H8L7.33 16l-.67-1.34H6V14z"/></g><g mask="url(#Spain_svg__a)"><rect width="1.333" height="4.667" x="4" y="12" fill="#A41517" rx=".667"/><rect width="1.333" height="4.667" x="4" y="12" rx=".667"/></g><g mask="url(#Spain_svg__a)"><rect width="1.333" height="4.667" x="9.333" y="12" fill="#A41517" rx=".667"/><rect width="1.333" height="4.667" x="9.333" y="12" rx=".667"/></g><g mask="url(#Spain_svg__a)"><path fill="#A41517" fill-rule="evenodd" d="M7.06 10.66h.54c.58 0 1.06.48 1.06 1.07 0 .15-.12.26-.27.26H6.26c-.15 0-.26-.11-.26-.26 0-.59.47-1.07 1.06-1.07"/><path d="M7.6 10.66c.58 0 1.06.48 1.06 1.07 0 .15-.12.26-.27.26H6.26c-.15 0-.26-.11-.26-.26 0-.59.47-1.07 1.06-1.07z"/></g></svg>
